symbols/web/medical_services/materialsymbolssharp/medical_services_wght200grad200fill1_48px.svg

<svg xmlns="http://www.w3.org/2000/svg" height="48" width="48"><path d="M22.95 35.05h2.15v-6h6V26.9h-6v-6h-2.15v6h-6v2.15h6Zm-17.75 8v-29.8h12.35v-6.4h12.9v6.4H42.8v29.8Zm14.5-29.8h8.6v-4.2h-8.6Z"/></svg>

<svg xmlns="http://www.w3.org/2000/svg" height="48" width="48"><path d="M22.95 35.05H25.1V29.05H31.1V26.9H25.1V20.9H22.95V26.9H16.95V29.05H22.95ZM5.2 43.05V13.25H17.55V6.85H30.45V13.25H42.8V43.05ZM19.7 13.25H28.3V9.05H19.7Z"/></svg>
